format-header-4.svg

<svg fill="currentColor" viewBox="0 0 24 24"><path d="M3 4h2v6h4V4h2v14H9v-6H5v6H3zm15 14v-5h-5v-2l5-7h2v7h1v2h-1v5zm0-7V7.42L15.45 11z"/></svg>

<svg  viewBox="0 0 24 24" fill="currentColor"><path  d="M3,4H5V10H9V4H11V18H9V12H5V18H3V4M18,18V13H13V11L18,4H20V11H21V13H20V18H18M18,11V7.42L15.45,11H18Z"/></svg>
